X: 30814
T: COTILLION No. 2. BALTIMORE SETT tune 7
T: Morpeth Rant
T: Clark's Hornpipe
%R: reel
B: Elias Howe "The Musician's Companion" Part 3 1844 p.81 #4
S: http://imslp.org/wiki/The_Musician's_Companion_(Howe,_Elias)
Z: 2015 John Chambers <jc:trillian.mit.edu>
M: 2/4
L: 1/16
K: Bb
% - - - - - - - - - - - - - - - - - - - - - - - - - - - - -
Bc |\
B2FE DB,DF | GEGB AFAc | dBec fdcB | A2c2 c2BA |\
B2FE DB,DF | GEGB AFAc | Bbag fedc | B2B2B2 H|]
(3(fga) |\
bfdB Aceg | fedc BAGF | ecec dBdB | A2F2F2A2 |\
GEGA edcB | AFAc fedc | Bbag fedc | B2B2"^D.C."B2 |]
% - - - - - - - - - - Dance description - - - - - - - - - -
%%begintext align
%% First 2 give right hand across,
%% left hand back,
%% form a line,
%% balance,
%% half promenade,
%% ladies forward and back,
%% gentlemen the same,
%% balance to partners,
%% half right and left to place.
%% Next 2 the same, &c.
%%endtext
% - - - - - - - - - - - - - - - - - - - - - - - - - - - - -
%%sep 1 1 300
